X:1
T:Title
%%score { ( 1 3 4 5 ) | ( 2 6 7 ) }
L:1/8
Q:1/4=110
M:4/4
K:F
V:1 treble nm="Grand Piano"
V:3 treble 
V:4 treble 
V:5 treble 
V:2 bass 
V:6 bass 
V:7 bass 
V:1
 A4 G2 F2 | A3 [GB] [Ac]4 | [Gc]4 [EG]2 [GB]2 | A6 z2 | A4 G2 F2 | c3 d c4 | [Fd]4 c2 =B-[FB] | %7
w: W.~H.~Doane * *|||||||
 [Ec]6 z2 | c4 A2 F2 | E3 F [EG]4 | [GB]4 [FA]2 [EG]2 | A6 z2 | c4 A2 [FA]2 | [FB]3 [Fc] [Fd]4 | %14
w: |||||||
[M:35/32] z4 z/ .A4 z/4 |[M:4/4] z8 |] %16
w: ||
V:2
 [F,CF]4 [F,B,C]2 [F,A,C]2 | [F,CF]3 [F,C] [F,C]4 | [E,C]4 [C,C]2 [C,C]2 | [F,CF]6 z2 | %4
 [F,CF]4 [F,B,C]2 [F,A,C]2 | [F,A,F]3 [F,B,F] [F,A,F]4 | [D,A,]4 [G,E]2 [G,,G,]2 | [C,G,]6 z2 | %8
 [F,A,F]4 [F,CF]2 [A,C]2 | [G,B,C]3 [F,A,C] [C,C]4 | [C,C]4 [C,C]2 [C,C]2 | [F,CF]6 z2 | %12
 [F,A,F]4 [F,CF]2 [_E,C]2 | [D,B,]3 [C,A,] [B,,B,]4 |[M:35/32] z4 z/ .C4 z/4 |[M:4/4] z8 |] %16
V:3
 x8 | x8 | x8 | x8 | x8 | x8 | z4 z2 .D2 | x8 | x8 | x8 | x8 | x8 | x8 | x8 | %14
[M:35/32] [Fc]4 z4 z3/4 |[M:4/4] [A,F]6- [A,F]/4 z/4 z/ z |] %16
V:4
 x8 | x8 | x8 | x8 | x8 | x8 | x8 | x8 | x8 | x8 | x8 | x8 | x8 | x8 |[M:35/32] z4 F4 z3/4 | %15
[M:4/4] x8 |] %16
V:5
 x8 | x8 | x8 | x8 | x8 | x8 | x8 | x8 | x8 | x8 | x8 | x8 | x8 | x8 | %14
[M:35/32] z3/2 z/4 z3/2 z/4 z3 [B,EG]2- [B,EG]/4- |[M:4/4] [B,EG]3/4 z/4 z z2 z4 |] %16
V:6
 x8 | x8 | x8 | x8 | x8 | x8 | x8 | x8 | x8 | x8 | x8 | x8 | x8 | x8 | %14
[M:35/32] [C,A,]4 .A,2 z2 z3/4 |[M:4/4] F,6- F,/4 z/4 z/ z |] %16
V:7
 x8 | x8 | x8 | x8 | x8 | x8 | x8 | x8 | x8 | x8 | x8 | x8 | x8 | x8 | %14
[M:35/32] z4 C,2- C,/ C,2- C,/4- |[M:4/4] C,3/4 z/4 z z2 z4 |] %16

